X: 1
T: la Fée des Dents
C: \251André Brunet
R: jig
M: 6/8
L: 1/8
K: Gmaj
|: "G"B2D- DGA | Bdc BAG | "Am" c2 E- EFG |"D7" FAG FED |
"G" B3 DGA | "Em" Bdc Bgf |"C"egd- dcB|"D7"AGF "G"G3 :|]
|:"C6"	~e3 edB|ced dBc|"Bm" d2 B- BAG|\
Bdc BAG |
"C"e2c efg |"D7"afd- dcB | "C"ced cBA|"D7"AGF "G"G3 :|]
%%vskip 2cm

